X:1
T: Kinloch
C:
R:Jig
Q:180
K:D
M:6/8
L:1/16
de|:f2e2d2 A2F2A2|B2G2B2 A2F2A2|f2e2d2 A2F2A2|B4c2d4e2|
f2e2d2 A2F2A2|B2G2B2 A2F2A2|f2e2d2 A2F2A2|B4c2d4e2:|
|:f4a2e4a2|d2e2d2c4A2|f4a2e4a2|^g2d2g2a4a2|
b2g2b2 a2f2a2|g2e2g2 f2d2e2|f2d2e2 A2F2A2|1B4c2d4e2:|2B4c2d4||
